/JOB
//NAME 0FIRST
//POS
///NPOS 20,0,0,0,0,0
///TOOL 0
///POSTYPE PULSE
///PULSE
C00000=-2,-75000,-8000,-3,-35000,-1
C00001=-28630,80280,90157,-484,24365,1680
C00002=-28630,77238,82400,-516,27202,1709
C00003=-29731,63583,59113,-1073,32984,2137
C00004=-29731,64706,64185,-1028,30612,2105
C00005=-44031,61262,48407,-39882,37687,-10751
C00006=-44031,61366,41878,-43481,40414,-8500
C00007=-45337,61889,40646,-49518,38974,-5705
C00008=-45337,61722,42038,-48581,38439,-6295
C00009=-43825,69363,54695,-45411,37231,-8447
C00010=-43825,70482,64705,-41157,33698,-11312
C00011=-23435,44447,24858,16968,54223,14040
C00012=-20032,45713,18094,31405,55325,10691
C00013=-21594,49264,23456,28310,54839,12402
C00014=-21594,48843,25534,26315,53548,13414
C00015=-20835,55469,35794,24517,51448,14280
C00016=-20835,55392,43149,20681,47410,16325
C00017=-24181,30370,6608,24191,54391,14722
C00018=-25699,34238,4519,27717,57880,13113
C00019=-26530,29945,-1323,28404,58879,12866
//INST
///DATE 2022/04/12 16:37
///ATTR SC,RW
///GROUP1 RB1
NOP
MOVJ C00000 VJ=0.78
MACRO1 MJ#(4) ARGF1 ARGF4
MOVJ C00001 VJ=50.00
MOVJ C00002 VJ=0.78
MOVJ C00003 VJ=0.78
MOVJ C00004 VJ=0.78
MOVJ C00005 VJ=0.78
MOVJ C00006 VJ=0.78
MOVJ C00007 VJ=0.78
MOVJ C00008 VJ=0.78
MOVJ C00009 VJ=0.78
MOVJ C00010 VJ=0.78
MOVJ C00011 VJ=0.78
MOVJ C00012 VJ=0.78
MOVJ C00013 VJ=0.78
MOVJ C00014 VJ=0.78
MOVJ C00015 VJ=0.78
MOVJ C00016 VJ=0.78
MOVJ C00017 VJ=50.00
MOVJ C00018 VJ=50.00
MOVL C00019 V=11.0
END
